Tools/StandardizedDiffuseAlbedoMaps/Patapom 300D.dcp.xml
<?xml version="1.0" encoding="UTF-8"?>
<dcpData>
  <ProfileName>CaPOM EOS 300D</ProfileName>
  <CalibrationIlluminant1>14</CalibrationIlluminant1>
  <CalibrationIlluminant2>0</CalibrationIlluminant2>
  <ColorMatrix1 Rows="3" Cols="3">
    <Element Row="2" Col="2">0.966800</Element>
    <Element Row="2" Col="1">0.078300</Element>
    <Element Row="2" Col="0">-0.044900</Element>
    <Element Row="1" Col="2">0.313100</Element>
    <Element Row="1" Col="1">1.294200</Element>
    <Element Row="1" Col="0">-0.573000</Element>
    <Element Row="0" Col="2">-0.033100</Element>
    <Element Row="0" Col="1">-0.347300</Element>
    <Element Row="0" Col="0">0.928400</Element>
  </ColorMatrix1>
  <ColorMatrix2 Rows="0" Cols="0"/>
  <ForwardMatrix1 Rows="0" Cols="0"/>
  <ForwardMatrix2 Rows="0" Cols="0"/>
  <ReductionMatrix1 Rows="0" Cols="0"/>
  <ReductionMatrix2 Rows="0" Cols="0"/>
  <EmbedPolicy>0</EmbedPolicy>
  <HueSatDeltas1 hueDivisions="6" satDivisions="6" valDivisions="3">
    <Element HueDiv="0" SatDiv="0" ValDiv="0" HueShift="0.000000" SatScale="1.000000" ValScale="1.000000"/>
    <Element HueDiv="0" SatDiv="0" ValDiv="1" HueShift="0.000000" SatScale="1.000000" ValScale="1.000000"/>
    <Element HueDiv="0" SatDiv="0" ValDiv="2" HueShift="0.000000" SatScale="1.000000" ValScale="1.000000"/>
    <Element HueDiv="0" SatDiv="1" ValDiv="0" HueShift="0.000000" SatScale="1.000000" ValScale="1.000000"/>
    <Element HueDiv="0" SatDiv="1" ValDiv="1" HueShift="-0.489959" SatScale="0.945359" ValScale="0.992764"/>
    <Element HueDiv="0" SatDiv="1" ValDiv="2" HueShift="2.004638" SatScale="0.923486" ValScale="0.999821"/>
    <Element HueDiv="0" SatDiv="2" ValDiv="0" HueShift="0.000000" SatScale="1.000000" ValScale="1.000000"/>
    <Element HueDiv="0" SatDiv="2" ValDiv="1" HueShift="-1.618030" SatScale="0.987300" ValScale="0.962612"/>
    <Element HueDiv="0" SatDiv="2" ValDiv="2" HueShift="-1.415964" SatScale="0.976313" ValScale="0.969811"/>
    <Element HueDiv="0" SatDiv="3" ValDiv="0" HueShift="0.000000" SatScale="1.000000" ValScale="1.000000"/>
    <Element HueDiv="0" SatDiv="3" ValDiv="1" HueShift="-3.374419" SatScale="1.053020" ValScale="0.941089"/>
    <Element HueDiv="0" SatDiv="3" ValDiv="2" HueShift="-3.596542" SatScale="1.048705" ValScale="0.944719"/>
    <Element HueDiv="0" SatDiv="4" ValDiv="0" HueShift="0.000000" SatScale="1.000000" ValScale="1.000000"/>
    <Element HueDiv="0" SatDiv="4" ValDiv="1" HueShift="-3.323975" SatScale="1.063783" ValScale="0.937440"/>
    <Element HueDiv="0" SatDiv="4" ValDiv="2" HueShift="-2.806664" SatScale="1.044990" ValScale="0.959839"/>
    <Element HueDiv="0" SatDiv="5" ValDiv="0" HueShift="0.000000" SatScale="1.000000" ValScale="1.000000"/>
    <Element HueDiv="0" SatDiv="5" ValDiv="1" HueShift="-2.021372" SatScale="1.023208" ValScale="0.996206"/>
    <Element HueDiv="0" SatDiv="5" ValDiv="2" HueShift="-0.915519" SatScale="1.004740" ValScale="1.027640"/>
    <Element HueDiv="1" SatDiv="0" ValDiv="0" HueShift="0.000000" SatScale="1.000000" ValScale="1.000000"/>
    <Element HueDiv="1" SatDiv="0" ValDiv="1" HueShift="3.517449" SatScale="1.050656" ValScale="1.000000"/>
    <Element HueDiv="1" SatDiv="0" ValDiv="2" HueShift="5.298460" SatScale="1.064923" ValScale="1.000000"/>
    <Element HueDiv="1" SatDiv="1" ValDiv="0" HueShift="0.000000" SatScale="1.000000" ValScale="1.000000"/>
    <Element HueDiv="1" SatDiv="1" ValDiv="1" HueShift="3.517449" SatScale="1.050656" ValScale="1.013073"/>
    <Element HueDiv="1" SatDiv="1" ValDiv="2" HueShift="5.298460" SatScale="1.064923" ValScale="1.028083"/>
    <Element HueDiv="1" SatDiv="2" ValDiv="0" HueShift="0.000000" SatScale="1.000000" ValScale="1.000000"/>
    <Element HueDiv="1" SatDiv="2" ValDiv="1" HueShift="2.240362" SatScale="1.033214" ValScale="0.992436"/>
    <Element HueDiv="1" SatDiv="2" ValDiv="2" HueShift="3.807966" SatScale="1.033693" ValScale="1.008986"/>
    <Element HueDiv="1" SatDiv="3" ValDiv="0" HueShift="0.000000" SatScale="1.000000" ValScale="1.000000"/>
    <Element HueDiv="1" SatDiv="3" ValDiv="1" HueShift="0.844544" SatScale="1.019811" ValScale="0.962269"/>
    <Element HueDiv="1" SatDiv="3" ValDiv="2" HueShift="0.272681" SatScale="0.998429" ValScale="0.965690"/>
    <Element HueDiv="1" SatDiv="4" ValDiv="0" HueShift="0.000000" SatScale="1.000000" ValScale="1.000000"/>
    <Element HueDiv="1" SatDiv="4" ValDiv="1" HueShift="-2.834108" SatScale="1.010237" ValScale="0.940699"/>
    <Element HueDiv="1" SatDiv="4" ValDiv="2" HueShift="-2.802406" SatScale="0.996899" ValScale="0.948785"/>
    <Element HueDiv="1" SatDiv="5" ValDiv="0" HueShift="0.000000" SatScale="1.000000" ValScale="1.000000"/>
    <Element HueDiv="1" SatDiv="5" ValDiv="1" HueShift="-4.255132" SatScale="0.998436" ValScale="0.956098"/>
    <Element HueDiv="1" SatDiv="5" ValDiv="2" HueShift="-2.967721" SatScale="0.997046" ValScale="0.970034"/>
    <Element HueDiv="2" SatDiv="0" ValDiv="0" HueShift="0.000000" SatScale="1.000000" ValScale="1.000000"/>
    <Element HueDiv="2" SatDiv="0" ValDiv="1" HueShift="-2.513397" SatScale="1.126412" ValScale="1.000000"/>
    <Element HueDiv="2" SatDiv="0" ValDiv="2" HueShift="-2.116984" SatScale="1.134956" ValScale="1.000000"/>
    <Element HueDiv="2" SatDiv="1" ValDiv="0" HueShift="0.000000" SatScale="1.000000" ValScale="1.000000"/>
    <Element HueDiv="2" SatDiv="1" ValDiv="1" HueShift="-2.513397" SatScale="1.126412" ValScale="1.002047"/>
    <Element HueDiv="2" SatDiv="1" ValDiv="2" HueShift="-2.116984" SatScale="1.134956" ValScale="1.012887"/>
    <Element HueDiv="2" SatDiv="2" ValDiv="0" HueShift="0.000000" SatScale="1.000000" ValScale="1.000000"/>
    <Element HueDiv="2" SatDiv="2" ValDiv="1" HueShift="-2.279463" SatScale="1.091299" ValScale="0.967502"/>
    <Element HueDiv="2" SatDiv="2" ValDiv="2" HueShift="-0.933691" SatScale="1.044885" ValScale="0.970606"/>
    <Element HueDiv="2" SatDiv="3" ValDiv="0" HueShift="0.000000" SatScale="1.000000" ValScale="1.000000"/>
    <Element HueDiv="2" SatDiv="3" ValDiv="1" HueShift="-1.092008" SatScale="1.014152" ValScale="0.926359"/>
    <Element HueDiv="2" SatDiv="3" ValDiv="2" HueShift="0.215592" SatScale="0.990905" ValScale="0.931233"/>
    <Element HueDiv="2" SatDiv="4" ValDiv="0" HueShift="0.000000" SatScale="1.000000" ValScale="1.000000"/>
    <Element HueDiv="2" SatDiv="4" ValDiv="1" HueShift="-0.261642" SatScale="0.992289" ValScale="0.921863"/>
    <Element HueDiv="2" SatDiv="4" ValDiv="2" HueShift="0.320677" SatScale="0.988982" ValScale="0.949151"/>
    <Element HueDiv="2" SatDiv="5" ValDiv="0" HueShift="0.000000" SatScale="1.000000" ValScale="1.000000"/>
    <Element HueDiv="2" SatDiv="5" ValDiv="1" HueShift="-0.311092" SatScale="0.996813" ValScale="0.985244"/>
    <Element HueDiv="2" SatDiv="5" ValDiv="2" HueShift="-0.192513" SatScale="0.995457" ValScale="0.994392"/>
    <Element HueDiv="3" SatDiv="0" ValDiv="0" HueShift="0.000000" SatScale="1.000000" ValScale="1.000000"/>
    <Element HueDiv="3" SatDiv="0" ValDiv="1" HueShift="-7.720508" SatScale="1.096861" ValScale="1.000000"/>
    <Element HueDiv="3" SatDiv="0" ValDiv="2" HueShift="-9.020726" SatScale="1.106966" ValScale="1.000000"/>
    <Element HueDiv="3" SatDiv="1" ValDiv="0" HueShift="0.000000" SatScale="1.000000" ValScale="1.000000"/>
    <Element HueDiv="3" SatDiv="1" ValDiv="1" HueShift="-7.720508" SatScale="1.096861" ValScale="1.022831"/>
    <Element HueDiv="3" SatDiv="1" ValDiv="2" HueShift="-9.020726" SatScale="1.106966" ValScale="1.029051"/>
    <Element HueDiv="3" SatDiv="2" ValDiv="0" HueShift="0.000000" SatScale="1.000000" ValScale="1.000000"/>
    <Element HueDiv="3" SatDiv="2" ValDiv="1" HueShift="-6.937132" SatScale="1.067813" ValScale="1.012267"/>
    <Element HueDiv="3" SatDiv="2" ValDiv="2" HueShift="-4.638421" SatScale="1.044463" ValScale="1.002527"/>
    <Element HueDiv="3" SatDiv="3" ValDiv="0" HueShift="0.000000" SatScale="1.000000" ValScale="1.000000"/>
    <Element HueDiv="3" SatDiv="3" ValDiv="1" HueShift="-0.997375" SatScale="1.004265" ValScale="0.976718"/>
    <Element HueDiv="3" SatDiv="3" ValDiv="2" HueShift="1.053485" SatScale="1.005711" ValScale="0.973336"/>
    <Element HueDiv="3" SatDiv="4" ValDiv="0" HueShift="0.000000" SatScale="1.000000" ValScale="1.000000"/>
    <Element HueDiv="3" SatDiv="4" ValDiv="1" HueShift="2.190446" SatScale="0.996240" ValScale="0.986990"/>
    <Element HueDiv="3" SatDiv="4" ValDiv="2" HueShift="3.009010" SatScale="1.000269" ValScale="1.003671"/>
    <Element HueDiv="3" SatDiv="5" ValDiv="0" HueShift="0.000000" SatScale="1.000000" ValScale="1.000000"/>
    <Element HueDiv="3" SatDiv="5" ValDiv="1" HueShift="2.036801" SatScale="0.992912" ValScale="1.012444"/>
    <Element HueDiv="3" SatDiv="5" ValDiv="2" HueShift="2.215929" SatScale="0.995694" ValScale="1.010978"/>
    <Element HueDiv="4" SatDiv="0" ValDiv="0" HueShift="0.000000" SatScale="1.000000" ValScale="1.000000"/>
    <Element HueDiv="4" SatDiv="0" ValDiv="1" HueShift="-2.028165" SatScale="0.992368" ValScale="1.000000"/>
    <Element HueDiv="4" SatDiv="0" ValDiv="2" HueShift="-3.651811" SatScale="0.978362" ValScale="1.000000"/>
    <Element HueDiv="4" SatDiv="1" ValDiv="0" HueShift="0.000000" SatScale="1.000000" ValScale="1.000000"/>
    <Element HueDiv="4" SatDiv="1" ValDiv="1" HueShift="-2.028165" SatScale="0.992368" ValScale="1.020265"/>
    <Element HueDiv="4" SatDiv="1" ValDiv="2" HueShift="-3.651811" SatScale="0.978362" ValScale="1.018745"/>
    <Element HueDiv="4" SatDiv="2" ValDiv="0" HueShift="0.000000" SatScale="1.000000" ValScale="1.000000"/>
    <Element HueDiv="4" SatDiv="2" ValDiv="1" HueShift="-0.337422" SatScale="0.990386" ValScale="1.025512"/>
    <Element HueDiv="4" SatDiv="2" ValDiv="2" HueShift="-1.313933" SatScale="0.986433" ValScale="1.015020"/>
    <Element HueDiv="4" SatDiv="3" ValDiv="0" HueShift="0.000000" SatScale="1.000000" ValScale="1.000000"/>
    <Element HueDiv="4" SatDiv="3" ValDiv="1" HueShift="0.652639" SatScale="0.998845" ValScale="1.040282"/>
    <Element HueDiv="4" SatDiv="3" ValDiv="2" HueShift="0.494516" SatScale="0.998073" ValScale="1.022708"/>
    <Element HueDiv="4" SatDiv="4" ValDiv="0" HueShift="0.000000" SatScale="1.000000" ValScale="1.000000"/>
    <Element HueDiv="4" SatDiv="4" ValDiv="1" HueShift="1.346860" SatScale="1.008103" ValScale="1.060022"/>
    <Element HueDiv="4" SatDiv="4" ValDiv="2" HueShift="1.033439" SatScale="1.006930" ValScale="1.038281"/>
    <Element HueDiv="4" SatDiv="5" ValDiv="0" HueShift="0.000000" SatScale="1.000000" ValScale="1.000000"/>
    <Element HueDiv="4" SatDiv="5" ValDiv="1" HueShift="1.377680" SatScale="0.987122" ValScale="1.050084"/>
    <Element HueDiv="4" SatDiv="5" ValDiv="2" HueShift="1.377680" SatScale="0.987122" ValScale="1.034346"/>
    <Element HueDiv="5" SatDiv="0" ValDiv="0" HueShift="0.000000" SatScale="1.000000" ValScale="1.000000"/>
    <Element HueDiv="5" SatDiv="0" ValDiv="1" HueShift="-0.679102" SatScale="1.010217" ValScale="1.000000"/>
    <Element HueDiv="5" SatDiv="0" ValDiv="2" HueShift="-0.338822" SatScale="0.956870" ValScale="1.000000"/>
    <Element HueDiv="5" SatDiv="1" ValDiv="0" HueShift="0.000000" SatScale="1.000000" ValScale="1.000000"/>
    <Element HueDiv="5" SatDiv="1" ValDiv="1" HueShift="-0.679102" SatScale="1.010217" ValScale="1.019818"/>
    <Element HueDiv="5" SatDiv="1" ValDiv="2" HueShift="-0.338822" SatScale="0.956870" ValScale="1.019329"/>
    <Element HueDiv="5" SatDiv="2" ValDiv="0" HueShift="0.000000" SatScale="1.000000" ValScale="1.000000"/>
    <Element HueDiv="5" SatDiv="2" ValDiv="1" HueShift="-0.474389" SatScale="1.034812" ValScale="1.021150"/>
    <Element HueDiv="5" SatDiv="2" ValDiv="2" HueShift="-0.593974" SatScale="1.011520" ValScale="1.012810"/>
    <Element HueDiv="5" SatDiv="3" ValDiv="0" HueShift="0.000000" SatScale="1.000000" ValScale="1.000000"/>
    <Element HueDiv="5" SatDiv="3" ValDiv="1" HueShift="-0.203155" SatScale="1.047523" ValScale="1.023285"/>
    <Element HueDiv="5" SatDiv="3" ValDiv="2" HueShift="-0.602828" SatScale="1.034971" ValScale="1.010692"/>
    <Element HueDiv="5" SatDiv="4" ValDiv="0" HueShift="0.000000" SatScale="1.000000" ValScale="1.000000"/>
    <Element HueDiv="5" SatDiv="4" ValDiv="1" HueShift="0.044721" SatScale="1.038662" ValScale="1.027857"/>
    <Element HueDiv="5" SatDiv="4" ValDiv="2" HueShift="-0.425231" SatScale="1.026838" ValScale="1.017064"/>
    <Element HueDiv="5" SatDiv="5" ValDiv="0" HueShift="0.000000" SatScale="1.000000" ValScale="1.000000"/>
    <Element HueDiv="5" SatDiv="5" ValDiv="1" HueShift="0.409936" SatScale="1.016812" ValScale="1.039653"/>
    <Element HueDiv="5" SatDiv="5" ValDiv="2" HueShift="0.068566" SatScale="1.007397" ValScale="1.030642"/>
  </HueSatDeltas1>
  <UniqueCameraModelRestriction>Canon EOS 300D</UniqueCameraModelRestriction>
  <ProfileLookTableEncoding>0</ProfileLookTableEncoding>
  <BaselineExposureOffset>0.000000</BaselineExposureOffset>
  <DefaultBlackRender>0</DefaultBlackRender>
</dcpData>
